X:128
T:The Humours of Tulla
M:4/4
L:1/8
K:D
fe|d2 Ad BdAB|d2 fd edBc|d2 Ad BdAd|cdef g2 :|
fg| af f2 df f2|af f2 ge e2|af f2 dfed|(3Bcd ef g3 ^g|
af f2 dfbf|af f2 ge e2 af f2 dfed cdef g2 |>|

